X:089
U: ~ = !turn!
%%topmargin 3cm
T:Humours of Glendart
B:Traditional Irish Fiddle Tunes. Randy Miller and Jack Perron.
Z:Transcribed by Ralph Palmer
R:Jig
M:6/8
L:1/8
K:D
A2 |: BAF ADD | FEF DFA | BAF ADD | FEE E2 A |
B/2c/2dB ADD | FEF DFA | dcd AFE | FDD D2 A ::
def d2 B | {/c}BAF ABA | def d2 f | gfe fdB |
def d2B | BAF ABc | dcd AFE | FDD D2 A :|]
